X: 14
T: Gillan's Reel
C: Traditional
T: Dance: Sgurr Alasdair
N: For Alastair MacFadyen.
N: Sgurr Alasdair is the highest peak in the Cuillin of Skye.
B: Social Dances 2002
R: reel
Z: 2014 John Chambers <jc:trillian.mit.edu>
M: 4/4
L: 1/8
K: A
E |:\
"A"A2cA "E7/G#"B2dB | "A"c2ec "E7"dBGB |\
"A"A2ce "D"fgaf | "A/C#"edcB "E7"AGFE |
"A"AEAc "E7/G#"BEBd | "A"cAce "E7"dBGB |\
"A/C#"A/A/A ce "D"fgaf | "E7"edcB "A"A2-A ||
g |\
"F#m"a2fa "E"g2eg | "D"f2df "A"ecBA |\
"F#m"a2fa "Bm"gaba "B7/D#"gfe^d "E7"e2fg |
"F#m"agfa "E"gfeg | "D"fedf "E7"edcB |\
"A"A/A/A ce "D"fgaf |1 "E7"ecdB "A"AG"E7"FE :|2 "E7"edcB "A"A2A |]
